X:8
T:Humours of Bandon
Z: id:dc-setdance-9
M:6/8
L:1/8
K:G Major
C|DGG GFG|A2G FGA|BGG GFG|Ade fef|!
d2e c2A|BAG FGA|BGA FDF|G3 G2:|!
B|dgg gfg|a2g fga|g2f d2e|=f2d c2e|!
d2c Bcd|c2B G2B|A2G FGA|G2F D2|]!

